X: 36
T: Greasy String
M: 4/4
L: 1/8
R: Reel
F: http://internet.cybermesa.com/~keating/music_abc/GIRLGREA.ABC
K: G
|: "G"D2ED G2A2 | "G"B2d2 "Em"B4   | "C"A2G2 "D"EDEG | "G"AG3  G4 \
|  "G"D2ED G2A2 | "G"B2d2 "Em"B4   | "C"A2G2 "D"EDEG | "G"AGG3 G4 :|
|: "G"g4   g2d2 | "G"edBA     G2fg | "D"agfg    a2ab | "D"agfe d4  |
|  "G"g2ba g2d2 | "G"ed3  "Em"B4   | "C"A2G2 "D"EDEG | "G"AG3  G4 :|
%%sep 2 1 500
